usr/share/icons/biglinux-icons-material/24/actions/labplot-axis-vertical.svg

<svg xmlns="http://www.w3.org/2000/svg" viewBox="0 0 24 24">
  <defs id="defs3051">
    <style type="text/css" id="current-color-scheme">
      .ColorScheme-Text {
        color:#dedede;
      }
      </style>
  </defs><g transform="translate(1,1)">
 <path 
     style="fill:currentColor;fill-opacity:1;stroke:none" 
     d="M 4 3 L 4 17 L 3 17 L 3 18 L 4 18 L 4 19 L 5 19 L 5 18 L 19 18 L 19 17 L 5 17 L 5 13.333984 L 7 13.333984 L 7 12.333984 L 5 12.333984 L 5 4 L 7 4 L 7 3 L 5 3 L 4 3 z M 5.0078125 7.6660156 L 5.0078125 8.6660156 L 7.0078125 8.6660156 L 7.0078125 7.6660156 L 5.0078125 7.6660156 z "
     class="ColorScheme-Text"
     />
</g></svg>

<svg xmlns="http://www.w3.org/2000/svg" viewBox="0 0 24 24"><path d="M4 3v14H3v1h1v1h1v-1h14v-1H5v-3.666h2v-1H5V4h2V3H4zm1.008 4.666v1h2v-1h-2z" style="fill:currentColor;fill-opacity:1;stroke:none;color:#dedede" transform="translate(1 1)"/></svg>
